X:67
T:Isle of Sky
S:Petrie's Second Collection of Strathspey Reels and Country Dances &c.
Z:Steve Wyrick , 6/11/04
N:Petrie's Second Collection, page 23
% Gore's Index shows several citations for this tune, all published around the same time
L:1/8
M:C
R:Reel
K:Bb
A|BFDF BFDF|  ECC=B cG(GA|B)FDF BFDG|  ECF>E DB,B,  :|
A|Bdfb fdBd|(TcBc)d cBGA |Bdfb  fdBd|(TcBc)d B/B/B B2|
  Bdfb fdBd|(TcBc)d cGGg |fBBg  aBbB|(TcBcd) B/B/B B |]
